X:1
T:[ID 11-21e]
T:[ID 11-21e]
T:Bezeichnung standardisiert: Nro 5 Nro 5
T:Urheber unbekannt Datum in der hier transkribierten schriftlichen Quelle: vermutlich um 1800
C:Urheber unbekannt
C:Datum in der hier transkribierten schriftlichen Quelle: vermutlich um 1800
L:1/8
M:3/4
K:Bb
V:1 treble 
V:1
 DFBFDF | EGBGEG | FAcecA | BdfdBF | DFBFDF | EGBGEG | FAcecA | B4 z2 :: AcecAc | BdfdBd | cegedc | %11
 Bdfgab | AcecAc | BdfdBd | cegecA | B4 z2 :| %16

